Yaru++/mimetypes/16/application-msexcel.svg

<svg height="16" width="16" xmlns="http://www.w3.org/2000/svg">
  <g fill="#808080">
    <path d="m8.6294511.2447117c-2.7090633.4824189-5.4195968 1.1224819-8.12865999 1.5960945 0 4.1210456-.00178 8.2437918 0 12.3666138 2.69492779.471837 5.39129179 1.101317 8.08091699 1.59258h.8072806v-15.5552883zm-1.8082356 4.8488314c-.4718022.9665386-.9453959 1.9332283-1.4260308 2.8962519.4859376.9895559.9825449 1.971855 1.4702437 2.961374-.4258544-.026457-.849891-.051402-1.2757492-.08126-.3003969-.736857-.6662967-1.4487691-.8818734-2.219188-.2403024.7173921-.5831622 1.394117-.8588183 2.097411-.386982-.003779-.7740245-.022677-1.1610066-.037795.4541292-.888794.8923918-1.7848821 1.3606564-2.6684223-.3975836-.9099968-.8340586-1.8021921-1.2440126-2.7068976.3887509-.022677.7776832-.045732 1.1664302-.066898.2632819.6908976.5511421 1.3728.7684876 2.0813858.2332346-.7509921.581348-1.4576882.879976-2.1839244.3993525-.026457.8005758-.052913 1.201697-.072567z"/>
    <path d="m9.9445338 2.4668849v1.1111055h1.6666392v1.1110677h-1.6666392v.5555527h1.6666392v1.1129953h-1.6666392v.553663h1.6666392v1.1110677h-1.6666392v.5555527h1.6666392v1.1111055h-1.6666392v.555553h1.6666392v1.111068h-1.6666392v.555553h1.6666392v1.111105h-1.6666392v1.111105h5.5554632v-11.6664941zm2.2221842 1.1111055h2.222185v1.1110677h-2.222185zm0 1.6666204h2.222185v1.1129953h-2.222185zm0 1.6666583h2.222185v1.1110677h-2.222185zm0 1.6666204h2.222185v1.1111055h-2.222185zm0 1.6666585h2.222185v1.111068h-2.222185zm0 1.666621h2.222185v1.111105h-2.222185z"/>
  </g>
</svg>

<svg xmlns="http://www.w3.org/2000/svg" width="16" height="16" version="1.1">
 <path d="M 8.6294511,0.2447117 C 5.9203878,0.7271306 3.2098543,1.3671936 0.50079111,1.8408062 c 0,4.1210456 -0.00178,8.2437918 0,12.3666138 C 3.1957189,14.679257 5.8920829,15.308737 8.5817081,15.8 H 9.3889887 V 0.2447117 Z M 6.8212155,5.0935431 C 6.3494133,6.0600817 5.8758196,7.0267714 5.3951847,7.989795 5.8811223,8.9793509 6.3777296,9.96165 6.8654284,10.951169 6.439574,10.924712 6.0155374,10.899767 5.5896792,10.869909 5.2892823,10.133052 4.9233825,9.4211399 4.7078058,8.650721 4.4675034,9.3681131 4.1246436,10.044838 3.8489875,10.748132 3.4620055,10.744353 3.074963,10.725455 2.6879809,10.710337 3.1421101,9.821543 3.5803727,8.9254549 4.0486373,8.0419147 3.6510537,7.1319179 3.2145787,6.2397226 2.8046247,5.3350171 3.1933756,5.3123401 3.5823079,5.2892851 3.9710549,5.2681191 4.2343368,5.9590167 4.522197,6.6409191 4.7395425,7.3495049 4.9727771,6.5985128 5.3208905,5.8918167 5.6195185,5.1655805 6.018871,5.1391235 6.4200943,5.1126675 6.8212155,5.0930135 Z" style="fill:#808080"/>
 <path d="M 9.9445338,2.4668849 V 3.5779904 H 11.611173 V 4.6890581 H 9.9445338 V 5.2446108 H 11.611173 V 6.3576061 H 9.9445338 v 0.553663 H 11.611173 V 8.0223368 H 9.9445338 V 8.5778895 H 11.611173 V 9.688995 H 9.9445338 v 0.555553 h 1.6666392 v 1.111068 H 9.9445338 v 0.555553 h 1.6666392 v 1.111105 H 9.9445338 v 1.111105 H 15.499997 V 2.4668849 Z m 2.2221842,1.1111055 h 2.222185 v 1.1110677 h -2.222185 z m 0,1.6666204 h 2.222185 v 1.1129953 h -2.222185 z m 0,1.6666583 h 2.222185 v 1.1110677 h -2.222185 z m 0,1.6666204 h 2.222185 V 9.688995 h -2.222185 z m 0,1.6666585 h 2.222185 v 1.111068 h -2.222185 z m 0,1.666621 h 2.222185 v 1.111105 h -2.222185 z" style="fill:#808080"/>
</svg>
